<?xml version="1.0" encoding="UTF-8"?>
<map version="1.10" tiledversion="1.11.2" orientation="orthogonal" renderorder="right-down" width="30" height="30" tilewidth="16" tileheight="16" infinite="0" nextlayerid="6" nextobjectid="7">
 <tileset firstgid="1" source="Flooring.tsx"/>
 <tileset firstgid="573" source="Beach_Tile.tsx"/>
 <tileset firstgid="588" source="Water_Tile.tsx"/>
 <tileset firstgid="606" source="Hills.tsx"/>
 <tileset firstgid="705" source="Water-1.png.tsx"/>
 <layer id="1" name="background" width="30" height="30">
  <data encoding="csv">
0,0,0,0,0,0,0,0,0,0,0,0,0,0,0,0,0,0,0,0,0,0,0,0,0,0,0,0,0,0,
0,0,0,0,0,0,0,0,0,0,0,0,0,0,0,0,0,0,0,0,0,0,0,0,0,0,0,0,0,0,
0,0,0,0,0,0,0,0,0,0,0,0,0,0,0,0,0,0,0,0,0,0,0,0,0,0,0,0,0,0,
0,0,0,0,0,0,0,0,0,0,0,0,0,0,0,0,0,0,0,0,0,0,0,0,0,0,0,0,0,0,
0,0,0,0,0,0,0,0,0,0,0,0,0,0,0,0,0,0,0,0,0,0,0,0,0,0,0,0,0,0,
0,0,0,0,0,0,0,0,0,0,0,0,0,0,0,0,0,0,0,0,0,0,0,0,0,0,0,0,0,0,
0,0,0,0,0,0,0,0,0,0,0,0,0,0,0,0,0,0,0,0,0,0,0,0,0,0,0,0,0,0,
0,0,0,0,0,0,0,0,0,0,0,0,0,0,0,0,0,0,0,0,0,0,0,0,0,0,0,0,0,0,
0,0,0,0,0,0,0,0,0,0,0,0,0,0,0,0,0,0,0,0,0,0,0,0,0,0,0,0,0,0,
0,0,0,0,0,0,0,0,0,0,0,0,0,0,0,0,0,0,0,0,0,0,0,0,0,0,0,0,0,0,
0,0,0,0,0,0,0,0,0,0,0,0,0,0,0,0,0,0,0,0,0,0,0,0,0,0,0,0,0,0,
0,0,0,0,0,0,0,0,0,0,0,0,0,0,0,0,0,0,0,0,0,0,0,0,0,0,0,0,0,0,
0,0,0,0,0,0,0,0,0,0,0,0,0,0,0,0,0,0,0,0,0,0,0,0,0,0,0,0,0,0,
0,0,0,0,0,0,0,0,0,0,0,0,0,0,0,0,0,0,0,0,0,0,0,0,0,0,0,0,0,0,
0,0,0,0,0,0,0,0,0,0,0,0,0,0,0,0,0,0,0,0,0,0,0,0,0,0,0,0,0,0,
577,0,0,0,0,0,0,0,0,0,0,0,0,0,0,0,0,0,576,709,710,711,709,710,711,712,577,0,0,0,
578,0,0,0,0,0,0,0,0,0,0,0,0,0,0,0,0,0,580,716,713,714,715,716,713,714,578,0,0,0,
583,709,710,709,710,711,712,711,712,709,710,709,710,711,712,711,712,584,585,716,713,714,715,716,713,714,578,0,0,0,
713,714,715,716,713,714,715,716,713,714,715,716,713,714,715,716,713,714,715,716,713,714,715,716,713,714,578,0,0,0,
713,714,715,716,713,714,715,716,713,714,715,716,713,714,715,716,713,714,715,716,713,714,715,716,713,714,578,0,0,0,
713,714,715,716,713,714,715,716,713,714,715,716,713,714,715,716,713,714,715,716,713,714,715,716,713,714,578,0,0,0,
713,714,715,716,713,714,715,716,713,714,715,716,713,714,715,716,713,714,715,716,713,714,715,716,713,714,578,0,0,0,
713,714,715,716,713,714,715,716,713,714,715,716,713,714,715,716,713,714,715,716,713,714,715,716,713,714,578,0,0,0,
713,714,715,716,713,714,715,716,713,714,715,716,713,714,715,716,713,714,715,716,713,714,715,716,713,714,709,710,711,712,
713,714,715,716,713,714,715,716,713,714,715,716,713,714,715,716,713,714,715,716,713,714,715,716,713,714,715,716,713,714,
713,714,715,716,713,714,715,716,713,714,715,716,713,714,715,716,713,714,715,716,713,714,715,716,713,714,715,716,713,714,
713,714,715,716,713,714,715,716,713,714,715,716,713,714,715,716,713,714,715,716,713,714,715,716,713,714,715,716,713,714,
713,714,715,716,713,714,715,716,713,714,715,716,713,714,715,716,713,714,715,716,713,714,715,716,713,714,715,716,713,714,
713,714,715,716,713,714,715,716,713,714,715,716,713,714,715,716,713,714,715,716,713,714,715,716,713,714,715,716,713,714,
713,714,715,716,713,714,715,716,713,714,715,716,713,714,715,716,713,714,715,716,713,714,715,716,713,714,715,716,713,714
</data>
 </layer>
 <layer id="2" name="decorations" width="30" height="30">
  <data encoding="csv">
629,629,629,629,629,629,629,629,629,629,629,629,629,629,629,629,629,629,630,681,681,682,682,628,629,629,629,629,629,629,
0,0,0,0,0,0,0,0,0,0,0,0,0,0,0,0,0,0,0,0,0,0,0,0,0,0,0,0,0,0,
0,0,0,0,0,0,0,0,0,0,0,0,0,0,0,0,0,0,0,0,0,0,0,0,0,0,0,0,0,0,
0,0,0,0,0,0,0,0,0,0,0,0,0,0,0,0,0,0,0,0,0,0,0,0,0,0,0,0,0,0,
0,0,0,0,0,0,0,0,0,0,0,0,0,0,0,0,0,0,0,0,0,0,0,0,0,0,0,0,0,0,
0,0,0,0,0,0,0,0,0,0,0,0,0,0,0,0,0,0,0,0,0,0,0,0,0,0,0,0,0,0,
0,0,0,0,0,0,0,0,0,0,0,0,0,0,0,0,0,0,0,0,0,0,0,0,0,0,0,0,0,0,
0,0,0,0,0,0,0,0,0,0,0,0,0,0,0,0,0,0,0,0,0,0,0,0,0,0,0,0,0,0,
0,0,0,0,0,0,0,0,0,0,0,0,0,0,0,0,0,0,0,0,0,0,0,0,0,0,0,0,0,0,
0,0,0,0,0,0,0,0,0,0,0,0,0,0,0,0,0,0,0,0,0,0,0,0,0,0,0,0,0,0,
0,0,0,0,0,0,0,0,0,0,0,0,0,0,0,0,0,0,0,0,0,0,0,0,0,0,0,0,0,0,
0,0,0,0,0,0,0,0,0,0,0,0,0,0,0,0,0,0,0,0,0,0,0,0,0,0,0,0,0,0,
0,0,0,0,0,0,0,0,0,0,0,0,0,0,0,0,0,0,0,0,0,0,0,0,0,0,0,0,0,0,
0,0,0,0,0,0,0,0,0,0,0,0,0,0,0,0,0,0,0,0,0,0,0,0,0,0,0,0,0,0,
0,0,0,0,0,0,0,0,0,0,0,0,0,0,0,0,0,0,0,0,0,0,0,0,0,0,0,0,0,0,
0,0,0,0,0,0,0,0,0,0,0,0,0,0,0,0,0,0,0,0,0,0,0,0,0,0,0,0,0,0,
0,0,0,0,0,0,0,0,0,0,0,0,0,0,0,0,0,0,0,0,0,0,0,0,0,0,0,0,0,0,
0,0,0,0,0,0,0,0,0,0,0,0,0,0,0,0,0,0,0,0,0,0,0,0,0,0,0,0,0,0,
0,0,0,0,0,0,0,0,0,0,0,0,0,0,0,0,0,0,0,0,0,0,0,0,0,0,0,0,0,0,
0,0,0,0,0,0,0,0,0,0,0,0,0,0,0,0,0,0,0,0,0,0,0,0,0,0,0,0,0,0,
0,0,0,0,0,0,0,0,0,0,0,0,0,0,0,0,0,0,0,0,0,0,0,0,0,0,0,0,0,0,
0,0,0,0,0,0,0,0,0,0,0,0,0,0,0,0,0,0,0,0,0,0,0,0,0,0,0,0,0,0,
0,0,0,0,0,0,0,0,0,0,0,0,0,0,0,0,0,0,0,0,0,0,0,0,0,0,0,0,0,0,
0,0,0,0,0,0,0,0,0,0,0,0,0,0,0,0,0,0,0,0,0,0,0,0,0,0,0,0,0,0,
0,0,0,0,0,0,0,0,0,0,0,0,0,0,0,0,0,0,0,0,0,0,0,0,0,0,0,0,0,0,
0,0,0,0,0,0,0,0,0,0,0,0,0,0,0,0,0,0,0,0,0,0,0,0,0,0,0,0,0,0,
0,0,0,0,0,0,0,0,0,0,0,0,0,0,0,0,0,0,0,0,0,0,0,0,0,0,0,0,0,0,
0,0,0,0,0,0,0,0,0,0,0,0,0,0,0,0,0,0,0,0,0,0,0,0,0,0,0,0,0,0,
0,0,0,0,0,0,0,0,0,0,0,0,0,0,0,0,0,0,0,0,0,0,0,0,0,0,0,0,0,0,
0,0,0,0,0,0,0,0,0,0,0,0,0,0,0,0,0,0,0,0,0,0,0,0,0,0,0,0,0,0
</data>
 </layer>
 <objectgroup id="3" name="Collisions">
  <object id="1" x="0" y="-8" width="480" height="12"/>
  <object id="2" x="-8" y="0" width="12" height="480"/>
  <object id="3" x="476" y="0" width="12" height="480"/>
  <object id="4" x="0" y="476" width="480" height="12"/>
  <object id="5" name="forest-biome" type="MapCollision" x="304" y="4" width="64" height="4"/>
 </objectgroup>
 <objectgroup id="4" name="Spawnpoints">
  <object id="6" name="forest-biome" type="Player" x="316" y="16" width="32" height="40"/>
 </objectgroup>
</map>
