<?xml version="1.0" encoding="UTF-8"?>
<map version="1.10" tiledversion="1.11.2" orientation="orthogonal" renderorder="right-down" width="15" height="15" tilewidth="16" tileheight="16" infinite="0" nextlayerid="12" nextobjectid="24">
 <tileset firstgid="1" source="Hills.tsx"/>
 <tileset firstgid="100" source="Flooring.tsx"/>
 <tileset firstgid="672" source="TilesetNature.tsx"/>
 <layer id="1" name="Tile Layer 1" width="15" height="15">
  <data encoding="csv">
375,375,375,375,375,375,375,375,375,375,375,375,375,375,375,
375,375,375,375,375,375,375,375,375,375,375,375,375,375,375,
376,375,375,375,379,375,375,375,379,375,375,375,376,375,375,
375,375,375,375,375,375,377,375,375,375,375,375,375,375,375,
375,375,375,375,375,375,375,375,379,375,375,375,375,375,377,
375,375,375,375,376,375,375,375,375,375,375,375,375,375,375,
375,377,375,375,375,375,375,375,375,375,375,375,375,375,379,
375,375,375,375,375,379,375,375,375,379,375,375,375,375,375,
375,375,375,375,375,375,375,376,375,375,375,375,375,375,376,
375,375,375,375,375,375,375,375,375,375,375,375,375,375,375,
375,375,375,375,375,375,375,375,375,375,375,375,375,375,375,
375,375,375,375,375,375,375,375,375,375,375,375,375,375,375,
375,375,375,375,377,375,375,375,375,375,375,375,375,375,377,
375,375,375,375,375,375,375,375,375,375,375,375,375,375,375,
375,377,375,375,375,375,375,375,375,375,375,375,375,375,375
</data>
 </layer>
 <layer id="3" name="Tile Layer 2" width="15" height="15">
  <data encoding="csv">
745,746,747,744,745,746,747,744,745,746,747,744,745,746,747,
769,770,771,768,769,770,771,768,769,770,771,768,769,770,771,
0,0,0,0,0,0,0,0,0,0,0,0,0,0,0,
0,0,0,0,0,0,0,0,0,0,0,0,0,0,0,
0,0,0,0,0,0,0,0,0,0,0,0,0,0,0,
0,0,0,0,0,0,0,0,0,0,0,0,0,0,0,
0,0,0,0,0,0,0,0,0,0,0,0,0,0,0,
0,0,0,0,0,0,0,0,0,0,0,0,0,0,0,
0,0,0,0,0,0,0,0,0,0,0,0,0,0,0,
0,0,0,0,0,0,0,0,0,0,0,0,0,0,0,
0,0,0,0,0,0,0,0,0,0,0,0,0,0,0,
0,0,0,0,0,0,0,0,0,0,0,0,0,0,0,
0,0,0,0,0,0,0,0,0,0,0,0,0,0,0,
0,0,0,0,0,0,0,0,0,0,0,0,0,0,0,
0,0,0,0,0,0,0,0,0,0,0,0,0,0,0
</data>
 </layer>
 <layer id="5" name="Tile Layer 3" width="15" height="15">
  <data encoding="csv">
0,0,0,0,0,0,0,0,0,0,0,0,0,0,0,
0,720,721,722,723,0,0,0,0,720,721,722,723,720,721,
0,744,745,746,747,0,0,0,0,744,745,746,747,744,745,
0,768,769,770,771,0,0,0,0,768,769,770,771,768,769,
0,0,0,0,0,0,0,0,0,0,0,0,0,0,0,
0,0,0,0,0,0,0,0,0,0,0,0,0,0,0,
0,0,0,0,0,0,0,0,0,0,0,0,0,0,0,
0,0,0,0,0,0,0,0,0,0,0,0,0,0,0,
0,0,0,0,0,0,0,0,0,0,0,0,0,0,0,
0,0,0,0,0,0,0,0,0,0,0,0,0,0,0,
0,0,0,0,0,0,0,0,0,0,0,0,0,0,0,
0,0,0,0,0,0,0,0,0,0,0,0,0,0,0,
0,0,0,0,0,0,0,0,0,0,0,0,0,0,0,
0,0,0,0,0,0,0,0,0,0,0,0,0,0,0,
0,0,0,0,0,0,0,0,0,0,0,0,0,0,0
</data>
 </layer>
 <layer id="6" name="Tile Layer 4" width="15" height="15">
  <data encoding="csv">
0,0,0,0,0,0,0,0,0,0,0,0,0,0,0,
0,0,0,0,0,0,0,0,0,0,0,0,0,0,0,
0,0,0,0,0,0,0,0,0,0,0,0,0,0,0,
721,722,723,0,0,0,0,0,0,0,0,0,0,0,0,
745,746,747,0,0,0,0,0,0,0,0,0,0,0,0,
769,770,771,0,0,0,0,0,0,0,0,0,0,0,0,
723,720,721,722,723,0,0,0,0,0,0,0,0,0,0,
747,744,745,746,747,0,0,0,0,0,0,0,0,0,0,
771,768,769,770,771,0,0,0,0,0,0,0,0,0,0,
0,0,0,0,0,0,0,0,0,0,0,0,0,0,0,
0,0,0,0,0,0,0,0,0,0,0,0,0,0,0,
0,0,0,0,0,0,0,0,0,0,0,0,0,0,0,
0,0,0,0,0,0,0,0,0,0,0,0,0,0,0,
0,0,0,771,0,0,0,0,0,0,0,0,0,0,0,
0,0,0,0,0,0,0,0,0,0,0,0,0,0,0
</data>
 </layer>
 <layer id="7" name="Tile Layer 5" width="15" height="15">
  <data encoding="csv">
0,0,0,0,0,0,0,0,0,0,0,0,0,0,0,
0,0,0,0,0,0,0,0,0,0,0,0,0,0,0,
0,0,0,0,0,0,0,0,0,0,0,0,0,0,0,
0,0,0,0,0,0,0,0,0,0,0,0,0,0,0,
0,0,0,0,0,0,0,0,0,0,0,0,0,0,0,
0,0,0,0,0,0,0,0,0,0,0,0,0,0,0,
0,0,0,0,0,0,0,0,0,0,0,0,0,0,0,
0,0,0,0,0,0,0,0,0,0,0,720,721,722,723,
721,722,723,0,0,0,0,0,0,0,0,744,745,746,747,
745,746,747,720,721,722,723,0,0,0,0,768,769,770,771,
769,770,771,744,745,746,747,0,0,0,0,0,0,0,0,
0,0,0,768,769,770,771,0,0,0,0,0,0,0,0,
0,0,0,0,0,0,0,0,0,0,0,0,0,0,0,
0,0,0,0,0,0,0,0,0,0,0,0,0,0,0,
0,0,0,0,0,0,0,0,0,0,0,0,0,0,0
</data>
 </layer>
 <layer id="8" name="Tile Layer 6" width="15" height="15">
  <data encoding="csv">
0,0,0,0,0,0,0,0,0,0,0,0,0,0,0,
0,0,0,0,0,0,0,0,0,0,0,0,0,0,0,
0,0,0,0,0,0,0,0,0,0,0,0,0,0,0,
0,0,0,0,0,0,0,0,0,0,0,0,0,0,0,
0,0,0,0,0,0,0,0,0,0,0,0,0,0,0,
0,0,0,0,0,0,0,0,0,0,0,0,0,0,0,
0,0,0,0,0,0,0,0,0,0,0,0,0,0,0,
0,0,0,0,0,0,0,0,0,0,0,0,0,0,0,
0,0,0,0,0,0,0,0,0,0,0,0,0,0,0,
0,0,0,0,0,0,0,0,0,720,721,722,723,720,721,
0,0,0,0,0,720,721,722,723,744,745,746,747,744,745,
720,721,722,723,0,744,745,746,747,768,769,770,771,768,769,
744,745,746,747,0,768,769,770,771,0,0,720,721,722,723,
768,769,770,0,721,722,723,0,0,0,0,744,745,746,747,
0,0,0,744,745,746,747,0,0,0,0,768,769,770,771
</data>
 </layer>
 <layer id="9" name="Tile Layer 7" width="15" height="15">
  <data encoding="csv">
0,0,0,0,0,0,0,0,0,0,0,0,0,0,0,
0,0,0,0,0,0,0,0,0,0,0,0,0,0,0,
0,0,0,0,0,0,0,0,0,0,0,0,0,0,0,
0,0,0,0,0,0,0,0,0,0,0,0,0,0,0,
0,0,0,0,0,0,0,0,0,0,0,0,0,0,0,
0,0,0,0,0,0,0,864,865,0,0,0,0,0,0,
0,0,0,0,0,0,0,888,889,0,0,0,0,0,0,
0,0,0,0,0,0,0,0,0,0,0,0,0,0,0,
0,0,0,0,0,0,0,0,0,0,0,0,0,0,0,
0,0,0,0,0,0,0,0,0,0,0,0,0,0,0,
0,0,0,0,0,0,0,0,0,0,0,0,0,0,0,
0,0,0,0,0,0,0,0,0,0,0,0,0,0,0,
0,0,0,0,0,0,0,720,721,722,723,0,0,0,0,
0,0,0,0,0,0,0,744,745,746,747,0,0,0,0,
0,0,0,0,0,0,0,768,769,770,771,0,0,0,0
</data>
 </layer>
 <objectgroup id="10" name="Collisions">
  <object id="1" x="144" y="-8" width="96" height="68"/>
  <object id="2" x="-4" y="-8" width="148" height="36"/>
  <object id="3" x="24" y="24" width="56" height="40"/>
  <object id="4" x="-12" y="24" width="56" height="72"/>
  <object id="5" x="0" y="112" width="80" height="32"/>
  <object id="6" x="0" y="96" width="60" height="20"/>
  <object id="9" x="192" y="112" width="32" height="20"/>
  <object id="10" x="176" y="132" width="64" height="36"/>
  <object id="12" x="164" y="148" width="76" height="92"/>
  <object id="13" x="-4" y="180" width="172" height="64"/>
  <object id="14" x="-4" y="164" width="132" height="24"/>
  <object id="15" x="148" y="164" width="20" height="16"/>
  <object id="16" x="-8" y="144" width="104" height="24"/>
  <object id="17" name="forest-biome" type="MapCollision" x="236" y="60" width="4" height="72"/>
  <object id="20" x="112" y="92" width="32" height="12">
   <ellipse/>
  </object>
 </objectgroup>
 <objectgroup id="11" name="Spawnpoints">
  <object id="19" name="forest-biome" type="Player" x="204" y="72" width="24" height="28"/>
  <object id="21" name="Sword" type="Item" x="116" y="76" width="20" height="16"/>
  <object id="22" name="Slime" type="Enemy" x="92" y="76" width="16" height="16"/>
  <object id="23" name="Slime" type="Enemy" x="148" y="76" width="16" height="16"/>
 </objectgroup>
</map>
