<?xml version="1.0" encoding="UTF-8"?>
<map version="1.10" tiledversion="1.11.2" orientation="orthogonal" renderorder="right-down" width="30" height="30" tilewidth="16" tileheight="16" infinite="0" nextlayerid="9" nextobjectid="480">
 <tileset firstgid="1" source="Grass.tsx"/>
 <tileset firstgid="78" source="Hills.tsx"/>
 <tileset firstgid="177" source="TilledDirt.tsx"/>
 <tileset firstgid="241" source="TilesetNature.tsx"/>
 <layer id="1" name="Background" width="30" height="30">
  <data encoding="csv">
56,56,56,56,56,56,56,56,56,56,56,56,56,56,56,56,56,56,56,56,56,56,56,56,56,56,56,56,56,56,
56,56,56,56,56,56,56,56,56,56,56,56,56,56,56,56,56,56,56,56,56,56,56,56,56,56,56,56,56,56,
56,56,56,56,56,56,56,56,56,56,56,56,56,56,56,56,56,56,56,56,56,56,56,56,56,56,56,56,56,56,
56,56,56,56,56,56,56,56,56,56,56,56,56,56,56,56,56,56,56,56,56,56,56,56,56,56,56,56,56,56,
56,56,56,56,56,56,56,56,56,56,56,56,56,56,56,56,56,56,56,56,56,56,56,56,56,56,56,56,56,56,
56,56,56,56,56,56,56,56,56,56,56,56,56,56,56,56,56,56,56,56,56,56,56,56,56,56,56,56,56,56,
56,56,56,56,56,56,56,56,56,56,56,56,56,56,56,56,56,56,56,56,56,56,56,56,56,56,56,56,56,56,
56,56,56,56,56,56,56,56,56,56,56,56,56,56,56,56,56,56,56,56,56,56,56,56,56,56,56,56,56,56,
56,56,56,56,56,56,56,56,56,56,56,56,56,56,56,56,56,56,56,56,56,56,56,56,56,56,56,56,56,56,
56,56,56,56,56,56,56,56,56,56,56,56,56,56,56,56,56,56,56,56,56,56,56,56,56,56,56,56,56,56,
56,56,56,56,56,56,56,56,56,56,56,56,56,56,56,56,56,56,56,56,56,56,56,56,56,56,56,56,56,56,
56,56,56,56,56,56,56,56,56,56,56,56,56,56,56,56,56,56,56,56,56,56,56,56,56,56,56,56,56,56,
56,56,56,56,56,56,56,56,56,56,56,56,56,56,56,56,56,56,56,56,56,56,56,56,56,56,56,56,56,56,
56,56,56,56,56,56,56,56,56,56,56,56,56,56,56,56,56,56,56,56,56,56,56,56,56,56,56,56,56,56,
56,56,56,56,56,56,56,56,56,56,56,56,56,56,56,56,56,56,56,56,56,56,56,56,56,56,56,56,56,56,
56,56,56,56,56,56,56,56,56,56,56,56,56,56,56,56,56,56,56,56,56,56,56,56,56,56,56,56,56,56,
56,56,56,56,56,56,56,56,56,56,56,56,56,56,56,56,56,56,56,56,56,56,56,56,56,56,56,56,56,56,
56,56,56,56,56,56,56,56,56,56,56,56,56,56,56,56,56,56,56,56,56,56,56,56,56,56,56,56,56,56,
56,56,56,56,56,56,56,56,56,56,56,56,56,56,56,56,56,56,56,56,56,56,56,56,56,56,56,56,56,56,
56,56,56,56,56,56,56,56,56,56,56,56,56,56,56,56,56,56,56,56,56,56,56,56,56,56,56,56,56,56,
56,56,56,56,56,56,56,56,56,56,56,56,56,56,56,56,56,56,56,56,56,56,56,56,56,56,56,56,56,56,
56,56,56,56,56,56,56,56,56,56,56,56,56,56,56,56,56,56,56,56,56,56,56,56,56,56,56,56,56,56,
56,56,56,56,56,56,56,56,56,56,56,56,56,56,56,56,56,56,56,56,56,56,56,56,56,56,56,56,56,56,
56,56,56,56,56,56,56,56,56,56,56,56,56,56,56,56,56,56,56,56,56,56,56,56,56,56,56,56,56,56,
56,56,56,56,56,56,56,56,56,56,56,56,56,56,56,56,56,56,56,56,56,56,56,56,56,56,56,56,56,56,
56,56,56,56,56,56,56,56,56,56,56,56,56,56,56,56,56,56,56,56,56,56,56,56,56,56,56,56,56,56,
56,56,56,56,56,56,56,56,56,56,56,56,56,56,56,56,56,56,56,56,56,56,56,56,56,56,56,56,56,56,
56,56,56,56,56,56,56,56,56,56,56,56,56,56,56,56,56,56,56,56,56,56,56,56,56,56,56,56,56,56,
56,56,56,56,56,56,56,56,56,56,56,56,56,56,56,56,56,56,56,56,56,56,56,56,56,56,56,56,56,56,
56,56,56,56,56,56,56,56,56,56,56,56,56,56,56,56,56,56,143,56,56,56,56,56,56,56,56,56,56,56
</data>
 </layer>
 <layer id="4" name="Level1" width="30" height="30">
  <data encoding="csv">
79,79,79,79,79,79,79,80,80,79,79,79,79,79,79,79,80,90,90,90,90,90,90,90,0,0,0,0,0,0,
0,0,0,0,0,0,0,91,91,0,0,90,90,0,0,0,91,0,0,0,0,0,90,90,0,0,0,0,0,0,
0,0,0,0,0,0,0,91,91,0,0,90,90,0,0,0,91,0,0,0,0,90,90,90,0,0,0,0,0,0,
0,0,0,0,0,0,0,91,91,0,0,90,90,0,0,0,91,0,0,0,0,90,90,90,0,0,0,0,0,0,
0,0,0,0,0,0,0,159,91,0,0,90,90,0,0,0,91,0,0,0,0,90,90,90,0,0,0,0,0,0,
0,90,90,90,0,0,0,159,91,0,0,90,90,0,0,0,91,0,0,0,0,90,90,90,0,0,0,0,0,0,
0,90,90,0,0,0,0,159,91,0,0,90,90,0,0,0,91,0,0,0,0,90,90,90,0,0,0,0,0,0,
101,101,101,101,101,101,101,113,91,0,0,90,90,0,0,0,91,0,0,0,0,90,90,90,0,0,0,0,0,0,
0,0,0,0,0,0,0,90,91,0,0,90,90,0,90,100,102,0,0,0,133,90,90,90,0,0,0,0,0,0,
101,101,101,101,101,101,101,101,102,90,90,177,177,177,177,177,177,0,0,90,133,0,90,90,0,0,0,0,0,0,
0,0,0,0,0,0,0,0,0,0,177,177,177,177,177,177,177,90,90,90,90,90,90,0,0,0,0,0,0,0,
0,0,0,177,177,177,177,177,177,177,177,177,177,13,13,78,80,90,90,90,90,90,90,90,0,0,0,0,0,0,
177,177,177,177,177,177,177,177,177,177,177,177,0,13,13,90,91,90,90,90,90,90,90,90,0,0,0,0,0,0,
177,177,177,177,177,177,177,177,177,177,177,13,90,13,13,90,91,90,90,133,90,90,90,90,0,0,0,0,0,0,
177,177,177,177,177,177,177,90,90,90,90,90,90,90,90,90,91,0,0,0,0,90,90,90,0,0,0,0,0,0,
13,90,90,90,90,13,90,90,90,90,90,90,90,0,0,0,91,0,0,0,0,90,90,90,0,0,0,0,0,0,
13,90,90,90,90,90,90,90,90,0,0,0,0,0,0,0,91,0,0,0,0,0,90,90,0,0,0,0,0,0,
117,116,117,116,117,116,117,116,117,116,117,116,117,116,117,101,102,0,0,0,0,0,90,90,0,0,0,0,0,0,
90,90,90,90,90,90,90,90,90,90,90,90,90,90,90,90,90,90,90,90,90,90,90,90,0,0,0,0,0,0,
0,0,90,90,90,90,90,90,90,90,90,90,90,90,90,90,90,0,0,0,0,0,0,0,0,0,0,0,0,0,
0,0,0,0,0,0,0,0,0,0,0,0,0,0,0,0,0,0,0,0,0,0,0,0,0,0,0,0,0,0,
0,0,0,0,0,0,0,0,0,0,0,0,0,0,0,0,0,0,0,0,0,0,0,0,0,0,0,0,0,0,
0,0,0,0,0,0,0,0,0,0,0,0,0,0,0,0,0,0,0,0,0,0,0,0,0,0,0,0,0,0,
0,0,0,0,0,0,0,0,0,0,0,0,0,0,0,0,0,0,0,0,0,0,0,0,0,0,0,0,0,0,
0,0,0,0,0,0,0,0,0,0,0,0,0,0,0,0,0,0,0,0,0,0,0,0,0,0,0,0,0,0,
0,0,0,0,0,0,0,0,0,0,0,0,0,0,0,0,0,13,0,0,0,0,0,0,0,0,0,0,0,0,
0,0,0,0,0,0,0,0,0,13,0,0,0,0,0,0,0,0,0,0,0,0,0,0,0,0,0,0,0,0,
0,0,0,0,0,0,0,0,0,0,0,0,0,0,0,0,0,0,0,0,0,0,0,0,0,0,0,0,0,0,
0,0,0,0,0,0,0,0,0,0,0,0,0,0,0,0,0,0,0,0,0,0,0,0,0,0,0,0,0,0,
166,166,166,166,166,166,166,166,166,166,166,166,166,166,166,102,138,138,138,100,166,166,166,166,166,166,166,166,166,166
</data>
 </layer>
 <objectgroup id="5" name="Spawnpoints">
  <object id="22" name="beach-biome" type="Player" x="268" y="416" width="24" height="28"/>
  <object id="25" name="deep-forest-biome" type="Player" x="16" y="200" width="24" height="28"/>
  <object id="31" name="mountain-biome" type="Player" x="372" y="16" width="24" height="28"/>
  <object id="32" name="town-biome" type="Player" x="440" y="324" width="24" height="28"/>
  <object id="456" x="168" y="24">
   <polygon points="0,0 4,0 4,-4.05556 8,-4.05556 16,-8.11111 24,-4.05556 28,-4.05556 28,0 32,0 40,12.1667 36,20.2778 32,24.3333 28,24.3333 24,28.5556 24,32.4444 24,36.5 16,40.5556 8,36.5 8,32.4444 4,24.3333 0,24.3333 -4,20.2778 -8,12.1667 0,4.05556 -4,4.05556"/>
  </object>
  <object id="479" name="Stick" type="Item" x="212" y="236" width="20" height="16"/>
 </objectgroup>
 <objectgroup id="3" name="Collisions" class="Map Collision">
  <object id="5" x="0" y="-8" width="480" height="12"/>
  <object id="6" x="-8" y="0" width="12" height="480"/>
  <object id="12" x="-8" y="272" width="280" height="16"/>
  <object id="13" x="0" y="0" width="144" height="160"/>
  <object id="15" x="268" y="0" width="4" height="136"/>
  <object id="16" x="268" y="176" width="4" height="112"/>
  <object id="17" x="240" y="176" width="32"/>
  <object id="18" x="240" y="132" width="32" height="4"/>
  <object id="20" x="476" y="0" width="12" height="480"/>
  <object id="21" x="0" y="476" width="480" height="12"/>
  <object id="23" x="240" y="176" height="16"/>
  <object id="29" x="0" y="468" width="260" height="12"/>
  <object id="30" x="300" y="468" width="180" height="12"/>
  <object id="81" name="deep-forest-biome" type="MapCollision" x="4" y="160" width="4" height="112"/>
  <object id="82" name="beach-biome" type="MapCollision" x="260" y="472" width="40" height="4"/>
  <object id="83" name="town-biome" type="MapCollision" x="472" y="304" width="4" height="112"/>
  <object id="84" name="mountain-biome" type="MapCollision" x="332" y="4" width="100" height="4"/>
  <object id="437" name="Tree" x="288" y="124" width="16" height="20">
   <ellipse/>
  </object>
  <object id="438" name="Tree" x="176" y="44" width="16" height="20">
   <ellipse/>
  </object>
  <object id="439" name="Tree" x="80" y="364" width="16" height="20">
   <ellipse/>
  </object>
  <object id="440" x="352" y="412" width="16" height="20">
   <ellipse/>
  </object>
  <object id="441" name="Tree" x="448" y="300" width="16" height="20">
   <ellipse/>
  </object>
  <object id="442" name="Tree" x="416" y="220" width="16" height="20">
   <ellipse/>
  </object>
  <object id="443" name="Tree" x="432" y="124" width="16" height="20">
   <ellipse/>
  </object>
  <object id="446" name="Tree" x="464" y="252" width="16" height="20">
   <ellipse/>
  </object>
  <object id="447" name="Tree" x="464" y="204" width="16" height="20">
   <ellipse/>
  </object>
  <object id="448" name="Tree" x="464" y="156" width="16" height="20">
   <ellipse/>
  </object>
  <object id="449" name="Tree" x="464" y="76" width="16" height="20">
   <ellipse/>
  </object>
  <object id="450" name="Tree" x="448" y="24" width="16" height="20">
   <ellipse/>
  </object>
  <object id="452" name="Stump" x="36" y="248" width="24" height="16">
   <ellipse/>
  </object>
  <object id="453" name="Stump" x="308" y="24" width="24" height="16">
   <ellipse/>
  </object>
  <object id="454" name="Stump" x="212" y="440" width="24" height="16">
   <ellipse/>
  </object>
  <object id="468" name="Rock" type="Breakable" x="-8" y="160" width="24" height="112"/>
 </objectgroup>
 <layer id="6" name="Items" width="30" height="30">
  <data encoding="csv">
0,0,0,0,0,0,0,0,0,0,0,0,0,0,0,0,0,0,0,0,0,0,0,0,0,0,0,676,677,678,
0,0,0,0,0,0,0,0,0,0,676,677,678,0,0,0,0,0,0,435,436,0,0,0,0,0,0,700,701,702,
0,0,673,674,675,0,0,0,0,0,700,701,702,0,0,0,0,0,0,459,460,0,0,0,0,0,0,724,725,726,
0,0,697,698,699,0,0,0,0,0,724,725,726,505,0,0,0,0,0,0,0,0,0,0,0,0,505,13,676,677,
0,0,721,722,723,0,0,0,0,0,0,0,0,0,0,0,0,0,0,0,0,0,0,0,0,0,0,0,700,701,
0,0,0,0,0,0,0,0,0,0,0,0,0,0,0,0,0,0,0,0,0,0,0,0,0,0,0,0,724,725,
0,0,0,0,0,0,0,0,0,0,0,0,0,0,0,0,0,676,677,678,0,0,0,0,0,0,676,677,678,676,
0,0,0,0,0,0,0,0,0,0,0,0,0,0,0,0,0,700,701,702,0,0,0,0,0,0,700,701,702,700,
0,0,0,0,0,0,0,0,0,0,0,0,0,0,0,0,0,724,725,726,0,0,0,0,0,0,724,725,676,677,
0,0,0,0,0,0,0,0,0,0,0,0,0,0,0,0,0,0,0,0,0,0,0,0,0,0,0,0,700,701,
0,0,508,0,0,0,0,0,0,0,0,0,0,0,0,0,0,0,0,0,0,0,0,0,0,0,0,0,724,725,
0,0,0,0,0,0,0,0,0,0,0,0,0,0,0,0,0,0,0,0,0,0,0,0,0,0,0,0,676,677,
0,0,0,0,0,0,0,0,0,0,0,0,0,0,0,0,0,0,0,0,0,0,0,0,0,676,677,678,700,701,
0,0,0,0,0,0,0,0,0,0,0,0,0,0,0,514,0,0,0,0,0,0,0,0,0,700,701,702,724,725,
0,0,0,0,0,0,0,0,0,0,0,0,0,514,514,514,0,0,0,0,0,0,0,0,0,724,725,726,676,677,
0,0,435,436,0,0,0,506,0,0,0,514,514,514,514,514,0,0,0,0,0,0,0,0,0,0,0,0,700,701,
0,0,459,460,0,0,0,0,0,0,514,514,514,514,514,514,0,0,0,0,0,0,0,0,0,0,0,0,724,725,
0,0,0,0,0,0,0,0,0,0,0,0,0,0,0,0,0,0,0,0,0,0,0,0,0,0,0,676,677,678,
0,0,0,0,0,0,0,0,0,0,0,0,0,0,0,0,0,0,0,0,0,0,0,0,0,508,0,700,701,702,
0,0,0,514,514,514,514,514,514,0,0,0,0,0,0,0,0,0,0,0,0,0,0,0,0,0,0,724,725,726,
0,0,0,0,0,0,0,0,0,0,0,0,0,0,0,0,0,0,0,0,0,0,0,0,0,0,0,0,0,0,
0,0,0,0,676,677,678,0,0,0,0,0,0,0,0,0,0,0,0,0,0,0,0,0,0,0,0,0,0,0,
0,0,0,0,700,701,702,0,0,0,0,0,0,0,0,0,0,0,0,0,0,0,0,0,0,0,0,0,0,0,
0,0,0,0,724,725,726,0,0,0,0,0,0,0,0,0,0,0,0,0,0,0,0,0,0,0,0,0,0,0,
0,0,0,0,0,0,0,0,0,0,0,0,0,0,0,0,0,0,0,0,0,676,677,678,0,0,0,0,0,0,
0,0,0,0,0,0,0,0,0,0,0,0,0,0,0,0,0,0,0,0,0,700,701,702,0,0,0,0,0,0,
0,0,0,0,0,0,0,0,0,0,0,0,0,0,0,0,0,0,0,0,0,724,725,726,0,505,0,0,676,677,
0,0,0,0,0,0,508,0,0,0,0,0,0,435,436,0,0,0,0,0,0,0,0,0,0,0,0,0,700,701,
0,0,0,0,0,0,0,0,0,0,0,0,0,459,460,0,0,0,0,0,0,0,0,0,0,0,0,0,724,725,
0,0,0,0,0,0,0,0,0,0,0,0,0,0,0,0,0,0,0,0,0,0,0,0,0,0,0,0,0,0
</data>
 </layer>
 <objectgroup id="7" name="ItemCollisions">
  <object id="36" x="168" y="23.4444">
   <polygon points="0,0 4,0 4,-4.05556 8,-4.05556 16,-8.11111 24,-4.05556 28,-4.05556 28,0 32,0 40,12.1667 36,20.2778 32,24.3333 28,24.3333 24,28.5556 24,32.4444 24,36.5 16,40.5556 8,36.5 8,32.4444 4,24.3333 0,24.3333 -4,20.2778 -8,12.1667 0,4.05556 -4,4.05556"/>
  </object>
  <object id="37" x="288" y="120" width="16" height="20"/>
  <object id="38" x="288" y="132" width="16" height="12">
   <ellipse/>
  </object>
  <object id="39" x="308" y="28" width="24" height="16">
   <ellipse/>
  </object>
  <object id="43" x="352" y="412" width="16" height="20">
   <ellipse/>
  </object>
  <object id="44" x="80" y="364" width="16" height="20">
   <ellipse/>
  </object>
  <object id="451" x="32" y="248" width="24" height="16">
   <ellipse/>
  </object>
 </objectgroup>
</map>
