<?xml version="1.0" encoding="UTF-8"?>
<map version="1.10" tiledversion="1.11.2" orientation="orthogonal" renderorder="right-down" width="20" height="20" tilewidth="16" tileheight="16" infinite="0" nextlayerid="9" nextobjectid="65">
 <tileset firstgid="1" source="Flooring.tsx"/>
 <tileset firstgid="573" source="TilesetNature.tsx"/>
 <layer id="2" name="Decoration" width="20" height="20">
  <data encoding="csv">
430,430,430,430,430,430,430,430,430,430,430,430,430,430,430,430,430,430,430,430,
430,430,430,430,430,430,430,430,430,430,430,430,430,430,430,430,430,430,430,430,
430,430,430,430,430,430,430,430,430,430,430,430,430,430,430,430,430,430,430,430,
430,430,430,430,430,430,430,430,430,430,430,430,430,430,430,430,430,430,430,430,
430,430,430,430,430,320,321,321,321,321,321,321,321,321,321,322,430,430,430,430,
430,430,430,430,320,328,343,343,343,343,343,343,343,343,343,343,328,430,430,430,
430,430,430,320,370,343,343,343,343,343,343,343,343,343,343,343,343,322,430,430,
430,430,320,370,343,343,343,343,343,343,343,343,343,343,343,343,343,344,430,430,
430,386,370,343,343,343,343,343,343,343,343,343,343,343,343,343,343,366,430,430,
430,430,342,343,343,343,343,343,343,343,343,343,343,343,343,343,343,430,430,430,
430,430,342,343,343,343,343,343,343,343,343,343,343,343,343,343,366,430,430,430,
430,430,342,343,343,343,343,343,343,343,343,343,343,343,343,344,430,430,430,430,
430,320,343,343,343,343,343,343,343,343,343,343,343,343,343,344,430,430,430,430,
430,342,343,343,343,343,343,343,343,343,343,343,343,343,343,343,322,430,430,430,
430,342,343,343,343,343,343,343,343,343,343,343,343,343,343,343,343,328,328,430,
430,364,343,343,343,343,343,343,343,343,343,343,343,343,343,343,343,343,388,430,
430,430,342,343,343,343,343,343,343,343,343,343,343,343,343,343,343,366,430,430,
430,430,364,365,343,343,343,343,343,343,343,343,343,343,343,343,366,430,430,430,
430,430,430,430,364,365,343,343,343,343,343,343,343,365,365,366,430,430,430,430,
430,430,430,430,430,430,364,365,365,365,365,365,366,430,430,430,430,430,430,430
</data>
 </layer>
 <objectgroup id="3" name="Collisions">
  <object id="45" x="0" y="-8" width="324" height="12"/>
  <object id="46" x="-8" y="0" width="12" height="320"/>
  <object id="52" x="316" y="0" width="12" height="320"/>
  <object id="53" x="-4" y="316" width="324" height="12"/>
  <object id="56" name="forest-biome" type="MapCollision" x="96" y="312" width="128" height="4"/>
 </objectgroup>
 <objectgroup id="4" name="Spawnpoints">
  <object id="55" name="forest-biome" type="Player" x="156" y="264" width="24" height="28"/>
  <object id="58" name="Warrior" type="Enemy" x="84" y="104" width="24" height="32"/>
  <object id="60" name="Warrior" type="Enemy" x="84" y="228" width="24" height="32"/>
  <object id="61" name="Warrior" type="Enemy" x="164" y="92" width="24" height="32"/>
  <object id="62" name="Warrior" type="Enemy" x="212" y="124" width="24" height="32"/>
  <object id="63" name="Warrior" type="Enemy" x="212" y="212" width="24" height="32"/>
  <object id="64" name="Warrior" type="Enemy" x="108" y="168" width="24" height="32"/>
 </objectgroup>
 <layer id="5" name="Tile Layer 3" width="20" height="20">
  <data encoding="csv">
705,706,707,753,754,755,756,709,710,711,712,733,734,735,736,705,706,707,708,0,
729,730,731,732,737,0,0,733,734,735,736,757,758,759,760,729,730,731,732,0,
753,754,755,756,761,0,0,757,758,759,760,0,0,0,0,753,754,755,756,0,
735,736,737,0,0,0,0,0,0,0,0,0,0,0,0,0,0,0,0,0,
759,760,761,0,0,0,0,0,0,0,0,0,0,0,0,0,0,0,0,0,
0,0,0,0,0,0,0,0,0,0,0,0,0,0,0,0,0,0,0,0,
0,0,0,0,0,0,0,0,0,0,0,0,0,0,0,0,0,0,0,0,
0,0,0,0,0,0,0,0,0,0,0,0,0,0,0,0,0,0,0,0,
0,0,0,0,0,0,0,0,0,0,0,0,0,0,0,0,0,0,0,0,
0,0,0,0,0,0,0,0,0,0,0,0,0,0,0,0,0,0,0,0,
0,0,0,0,0,0,0,0,0,0,0,0,0,0,0,0,0,0,0,0,
0,0,0,0,0,0,0,0,0,0,0,0,0,0,0,0,0,0,0,0,
0,0,0,0,0,0,0,0,0,0,0,0,0,0,0,0,0,0,0,0,
0,0,0,0,0,0,0,0,0,0,0,0,0,0,0,0,0,0,0,0,
0,0,0,0,0,0,0,0,0,0,0,0,0,0,0,0,0,0,0,0,
0,0,0,0,0,0,0,0,0,0,0,0,0,0,0,0,0,0,0,0,
0,0,0,0,0,0,0,0,0,0,0,0,0,0,0,0,0,0,0,0,
0,0,0,0,0,0,0,0,0,0,0,0,0,0,0,0,0,0,0,0,
0,0,0,0,0,0,0,0,0,0,0,0,0,0,0,0,0,0,0,0,
0,0,0,0,0,0,0,0,0,0,0,0,0,0,0,0,0,0,0,0
</data>
 </layer>
 <layer id="6" name="Tile Layer 4" width="20" height="20">
  <data encoding="csv">
0,0,0,0,0,0,0,0,0,0,0,0,0,0,0,0,0,0,0,0,
0,0,0,0,705,706,707,708,0,0,705,706,707,708,0,0,0,0,0,0,
0,0,0,0,729,730,731,732,0,0,729,730,731,732,0,0,0,709,710,711,
0,705,706,707,753,754,755,756,0,0,753,754,755,756,0,0,0,733,734,735,
0,729,730,731,732,0,0,0,0,0,0,0,0,0,0,0,0,757,758,759,
711,753,754,755,756,0,0,0,0,0,0,0,0,0,0,0,0,0,0,0,
735,736,0,0,0,0,0,0,0,0,0,0,0,0,0,0,0,0,0,0,
759,760,0,0,0,0,0,0,0,0,0,0,0,0,0,0,0,0,0,0,
0,0,0,0,0,0,0,0,0,0,0,0,0,0,0,0,0,0,0,0,
0,0,0,0,0,0,0,0,0,0,0,0,0,0,0,0,0,0,0,0,
0,0,0,0,0,0,0,0,0,0,0,0,0,0,0,0,0,0,0,0,
0,0,0,0,0,0,0,0,0,0,0,0,0,0,0,0,0,0,0,0,
0,0,0,0,0,0,0,0,0,0,0,0,0,0,0,0,0,0,0,0,
0,0,0,0,0,0,0,0,0,0,0,0,0,0,0,0,0,0,0,0,
0,0,0,0,0,0,0,0,0,0,0,0,0,0,0,0,0,0,0,0,
0,0,0,0,0,0,0,0,0,0,0,0,0,0,0,0,0,0,0,0,
0,0,0,0,0,0,0,0,0,0,0,0,0,0,0,0,0,0,0,0,
0,0,0,0,0,0,0,0,0,0,0,0,0,0,0,0,0,0,0,0,
0,0,0,0,0,0,0,0,0,0,0,0,0,0,0,0,0,0,0,0,
0,0,0,0,0,0,0,0,0,0,0,0,0,0,0,0,0,0,0,0
</data>
 </layer>
 <layer id="7" name="Tile Layer 5" width="20" height="20">
  <data encoding="csv">
0,0,0,0,0,0,0,0,0,0,0,0,0,0,0,0,0,0,0,0,
0,0,0,0,0,0,0,0,0,0,0,0,0,0,0,0,0,0,0,0,
0,0,0,0,0,0,0,0,972,973,0,0,0,0,972,973,0,0,0,0,
0,0,0,0,0,0,0,0,996,997,0,0,0,0,996,997,0,0,0,0,
0,0,0,0,0,0,0,0,0,0,0,0,0,0,0,0,972,973,0,0,
0,828,829,0,0,0,0,0,0,0,0,0,0,0,0,0,996,997,0,0,
0,852,853,0,0,0,0,0,0,0,0,0,0,0,0,0,0,0,0,0,
0,0,0,0,0,0,0,0,0,0,0,0,0,0,0,0,0,0,0,0,
0,0,0,0,0,0,0,0,0,0,0,0,0,0,0,0,0,0,0,0,
0,0,0,0,0,0,0,0,0,0,0,0,0,0,0,0,0,0,0,0,
0,0,0,0,0,0,0,0,0,0,0,0,0,0,0,0,0,0,0,0,
0,0,0,0,0,0,0,0,0,0,0,0,0,0,0,0,0,0,0,0,
0,0,0,0,0,0,0,0,0,0,0,0,0,0,0,0,0,0,0,0,
0,0,0,0,0,0,0,0,0,0,0,0,0,0,0,0,0,0,0,0,
0,0,0,0,0,0,0,0,0,0,0,0,0,0,0,0,0,0,0,0,
0,0,0,0,0,0,0,0,0,0,0,0,0,0,0,0,0,0,0,0,
0,0,0,0,0,0,0,0,0,0,0,0,0,0,0,0,0,0,0,0,
0,0,0,0,0,0,0,0,0,0,0,0,0,0,0,0,0,0,0,0,
0,0,0,0,0,0,0,0,0,0,0,0,0,0,0,0,0,0,0,0,
0,0,0,0,0,0,0,0,0,0,0,0,0,0,0,0,0,0,0,0
</data>
 </layer>
 <layer id="8" name="Tile Layer 6" width="20" height="20">
  <data encoding="csv">
0,0,0,0,0,0,0,0,0,0,0,0,0,0,0,0,0,0,0,0,
0,0,0,0,804,0,0,0,0,0,0,0,0,0,0,0,0,0,0,0,
0,0,0,0,0,0,0,0,0,0,0,0,0,0,0,0,0,0,0,0,
0,0,0,0,0,0,0,0,0,0,0,0,0,0,0,0,0,0,0,0,
0,0,0,0,0,0,0,0,0,0,0,0,0,0,0,0,0,0,0,0,
711,712,0,0,0,0,0,0,0,0,0,0,0,0,0,0,0,0,0,804,
735,736,0,0,0,0,0,0,0,0,0,0,0,0,0,0,0,0,781,782,
931,760,0,0,0,0,0,0,0,0,0,0,0,0,0,0,0,0,805,806,
955,0,0,0,0,0,0,0,0,0,0,0,0,0,0,0,0,778,779,807,
979,904,0,0,0,0,0,0,0,0,0,0,0,0,0,0,0,802,803,924,
778,779,0,0,0,0,0,0,0,0,0,0,0,0,0,0,709,710,711,712,
802,803,0,0,0,0,0,0,0,0,0,0,0,0,0,0,733,734,735,736,
925,0,0,0,0,0,0,0,0,0,0,0,0,0,0,0,757,758,759,760,
949,0,0,0,0,0,0,0,0,0,0,0,0,0,0,0,0,781,782,0,
807,0,0,0,0,0,0,0,0,0,0,0,0,0,0,0,0,805,806,930,
857,0,0,0,0,0,0,0,0,0,0,0,0,0,0,0,0,0,0,954,
881,807,0,0,0,0,0,0,0,0,0,0,0,0,0,0,0,0,904,978,
924,925,0,0,0,0,0,0,0,0,0,0,0,0,0,0,0,903,706,707,
948,949,926,927,928,929,0,0,0,0,0,0,0,0,778,779,999,729,730,731,
0,998,950,951,952,953,0,0,0,0,0,0,0,0,802,803,998,753,754,755
</data>
 </layer>
</map>
