<?xml version="1.0" encoding="UTF-8"?>
<map version="1.10" tiledversion="1.11.2" orientation="orthogonal" renderorder="right-down" width="30" height="30" tilewidth="16" tileheight="16" infinite="0" nextlayerid="6" nextobjectid="23">
 <tileset firstgid="1" source="Grass.tsx"/>
 <tileset firstgid="78" source="TilledDirt.tsx"/>
 <tileset firstgid="142" source="Cliff_Tile.tsx"/>
 <tileset firstgid="160" source="TilesetNature.tsx"/>
 <tileset firstgid="664" source="Hills.tsx"/>
 <tileset firstgid="763" source="TilesetVillageAbandoned.tsx"/>
 <tileset firstgid="1003" source="House.tsx"/>
 <tileset firstgid="1101" source="House.tsx"/>
 <layer id="1" name="Background" width="30" height="30">
  <data encoding="csv">
13,13,13,13,13,13,13,13,13,13,13,13,13,13,13,13,13,13,13,13,13,13,13,13,13,13,13,13,13,13,
13,13,13,13,13,13,13,13,13,13,13,13,13,13,13,13,13,13,13,13,13,13,13,13,13,13,13,13,13,13,
13,13,13,13,13,13,13,13,13,13,13,13,13,13,13,13,13,13,13,13,13,13,13,13,13,13,13,13,13,13,
13,13,13,13,13,13,13,13,13,13,13,13,13,13,13,13,13,13,13,13,13,13,13,13,13,13,13,13,13,13,
13,13,13,13,13,13,13,13,13,13,13,13,13,13,13,13,13,13,13,13,13,13,13,13,13,13,13,13,13,13,
13,13,13,13,13,13,13,13,13,13,13,13,13,13,13,13,13,13,13,13,13,13,13,13,13,13,13,13,13,13,
13,13,13,13,13,13,13,13,13,13,13,13,13,13,13,13,13,13,13,13,13,13,13,13,13,13,13,13,13,13,
13,13,13,13,13,13,13,13,13,13,13,13,13,13,13,13,13,13,13,13,13,13,13,13,13,13,13,13,13,13,
13,13,13,13,13,13,13,13,13,13,13,13,13,13,13,13,13,13,13,13,13,13,13,13,13,13,13,13,13,13,
13,13,13,13,13,13,13,13,13,13,13,13,13,13,13,78,78,13,13,13,13,13,13,13,13,13,13,13,13,13,
13,13,13,13,13,13,13,13,13,13,13,13,13,13,13,78,78,13,13,13,13,13,13,13,13,13,13,13,13,13,
13,13,13,13,13,13,13,13,13,13,13,13,13,13,13,78,78,78,13,13,13,13,13,13,13,13,13,13,13,13,
13,13,13,13,13,13,13,13,78,78,78,13,13,13,13,78,78,78,13,13,13,13,13,13,13,13,13,13,13,13,
13,13,13,13,13,13,13,13,78,78,78,13,13,13,13,78,78,78,13,13,13,13,13,13,13,13,13,13,13,13,
13,13,13,13,13,13,13,13,78,78,78,13,13,13,13,78,78,78,13,13,13,13,13,13,13,13,13,13,13,13,
13,13,13,13,13,13,13,13,78,78,78,78,78,78,78,78,78,78,13,13,13,13,13,13,13,13,13,13,13,13,
78,78,78,78,78,78,78,78,78,78,78,78,78,78,78,78,78,78,78,78,78,13,13,13,13,13,13,13,13,13,
78,78,78,78,78,78,78,78,78,78,78,78,78,78,78,78,78,78,78,78,78,78,13,13,13,13,13,13,13,13,
78,78,78,78,78,78,78,78,78,78,78,78,78,78,78,78,78,78,78,78,78,78,13,13,13,13,13,13,13,13,
78,78,78,78,78,78,78,78,78,78,78,78,78,78,13,13,13,13,13,78,78,78,13,13,13,13,13,13,13,13,
78,78,78,78,78,78,78,78,78,78,78,78,13,13,13,13,13,13,13,13,13,78,13,13,13,13,13,13,13,13,
13,13,13,13,13,13,13,13,13,13,13,13,13,13,13,13,13,13,13,13,13,13,13,13,13,13,13,13,13,13,
13,13,13,13,13,13,13,13,13,13,13,13,13,13,13,13,13,13,13,13,13,13,13,13,13,13,13,13,13,13,
13,13,13,13,13,13,13,13,13,13,13,13,13,13,13,13,13,13,13,13,13,13,13,13,13,13,13,13,13,13,
13,13,13,13,13,13,13,13,13,13,13,13,13,13,13,13,13,13,13,13,13,13,13,13,13,13,13,13,13,13,
13,13,13,13,13,13,13,13,13,13,13,13,13,13,13,13,13,13,13,13,13,13,13,13,13,13,13,13,13,13,
13,13,13,13,13,13,13,13,13,13,13,13,13,13,13,13,13,13,13,13,13,13,13,13,13,13,13,13,13,13,
13,13,13,13,13,13,13,13,13,13,13,13,13,13,13,13,13,13,13,13,13,13,13,13,13,13,13,13,13,13,
13,13,13,13,13,13,13,13,13,13,13,13,13,13,13,13,13,13,13,13,13,13,13,13,13,13,13,13,13,13,
13,13,13,13,13,13,13,13,13,13,13,13,13,13,13,13,13,13,13,13,13,13,13,13,13,13,13,13,13,13
</data>
 </layer>
 <layer id="5" name="Town" width="30" height="30">
  <data encoding="csv">
687,687,687,687,687,687,687,687,687,687,687,687,687,687,687,687,687,687,687,687,687,687,687,687,687,687,687,687,687,694,
13,13,13,13,13,13,59,13,13,13,13,13,13,13,13,13,13,13,13,13,13,13,13,13,13,13,13,13,13,675,
13,13,13,13,56,13,13,13,13,13,13,13,13,13,13,13,13,13,13,13,13,13,13,13,13,13,13,13,13,675,
13,13,13,13,13,13,13,13,13,13,13,13,13,13,13,13,13,13,13,13,13,13,13,13,13,13,13,13,13,675,
13,13,13,13,13,13,13,13,13,13,13,13,13,13,13,13,13,13,13,13,13,13,13,13,13,13,13,13,13,675,
13,13,13,13,13,13,13,13,13,13,13,13,13,13,13,13,61,13,13,13,13,13,13,13,13,13,13,13,13,675,
13,13,13,13,13,13,13,13,13,13,13,13,13,13,13,13,0,0,0,13,13,56,13,13,13,13,13,13,13,675,
13,13,13,13,13,13,13,1110,1111,1112,1113,1114,13,13,13,13,0,0,0,13,13,13,13,13,13,13,13,13,13,675,
13,13,13,13,13,13,13,1124,1125,1126,1127,1128,13,13,13,0,0,0,0,13,13,13,61,13,13,13,13,13,13,675,
13,13,13,13,13,13,13,1138,1139,1140,1141,1142,13,59,13,0,0,0,0,0,13,13,13,13,59,13,13,13,13,675,
13,13,13,13,13,13,61,1152,1153,1154,1155,1156,13,13,13,0,0,0,0,13,13,13,13,13,13,13,13,13,13,675,
13,13,13,13,13,13,13,1166,1167,1168,1169,1170,13,13,13,0,0,0,0,13,13,13,13,13,13,13,13,61,13,675,
13,13,13,13,13,13,13,1180,1181,1182,1183,1184,0,0,0,0,0,0,13,13,13,13,13,13,13,13,13,13,13,675,
511,512,13,59,13,13,13,1194,1195,1196,1197,1198,0,0,0,0,0,0,0,0,13,13,13,13,13,13,13,13,13,675,
535,536,13,13,13,13,13,13,0,0,0,0,0,0,0,0,0,0,0,0,0,13,13,13,13,13,13,13,13,675,
13,13,13,13,13,13,13,13,0,0,0,0,0,0,0,0,0,0,0,0,0,0,0,0,0,0,13,13,13,675,
0,0,0,0,0,0,0,0,0,0,0,0,0,0,0,0,0,0,0,0,0,0,0,13,13,13,13,13,13,675,
0,0,0,0,0,0,0,0,0,0,0,0,0,0,0,0,0,0,0,0,0,0,0,56,13,13,13,13,13,675,
0,0,0,0,0,0,0,0,0,0,0,0,0,0,0,0,0,0,0,0,0,0,0,13,13,13,13,13,13,675,
0,0,0,0,0,0,0,0,0,0,0,0,0,0,0,13,13,13,1101,1102,1103,1104,1105,13,13,13,13,13,13,675,
0,0,0,0,0,0,0,0,0,0,0,0,0,0,13,13,13,13,1115,1116,1117,1118,1119,13,13,13,61,13,13,675,
13,13,13,13,13,13,13,13,0,0,0,61,13,13,13,13,13,59,1129,1130,1131,1132,1133,13,13,13,13,13,13,675,
511,512,13,13,13,13,13,13,13,0,0,13,13,13,13,13,13,13,1143,1144,1145,1146,1147,13,13,13,13,13,13,675,
535,536,13,13,13,13,61,13,0,0,13,13,13,13,13,13,13,13,1157,1158,1159,1160,1161,13,13,13,13,13,13,675,
13,13,13,13,13,13,13,13,13,59,13,13,13,13,13,13,13,13,1171,1172,1173,1174,1175,13,13,13,13,13,13,675,
13,13,13,13,13,13,13,13,13,13,13,13,13,13,13,13,13,13,13,13,13,13,13,13,13,13,13,13,13,675,
13,13,13,61,13,13,13,13,13,13,13,56,13,13,13,13,13,13,61,13,13,13,13,13,13,13,13,13,13,675,
13,13,13,13,13,13,13,13,13,13,13,13,13,13,13,13,13,13,13,13,59,13,13,13,13,13,13,13,13,675,
13,13,13,13,13,13,13,13,13,13,13,13,13,13,13,13,13,13,13,13,13,13,13,13,13,13,13,13,13,675,
687,687,687,687,687,687,687,687,687,687,687,687,687,687,687,687,687,687,687,687,687,687,687,687,687,687,687,687,687,688
</data>
 </layer>
 <objectgroup id="2" name="Collisions">
  <object id="3" x="-8" y="0" width="12" height="480"/>
  <object id="8" x="4" y="468" width="480" height="12"/>
  <object id="9" x="0" y="-4" width="480" height="20"/>
  <object id="10" x="468" y="0" width="12" height="480"/>
  <object id="15" name="forest-biome" type="MapCollision" x="4" y="240" width="4" height="112"/>
  <object id="16" x="124" y="140" width="56" height="60"/>
  <object id="17" x="300" y="336" width="56" height="56"/>
 </objectgroup>
 <objectgroup id="3" name="Spawnpoints">
  <object id="11" name="forest-biome" type="Player" x="16" y="276" width="32" height="40"/>
  <object id="18" name="start-spawn" type="Player" x="192" y="264" width="32" height="40"/>
  <object id="21" name="Town Chief" type="NPC" x="180" y="204" width="48" height="28"/>
  <object id="22" name="Baker" type="NPC" x="288" y="220" width="48" height="28"/>
 </objectgroup>
</map>
